dist/svgs/unicons/line/sitemap.svg

<svg xmlns="http://www.w3.org/2000/svg" data-name="Layer 1" viewBox="0 0 24 24"><path d="M22 15h-2v-3a1 1 0 00-1-1h-6V9h2a1 1 0 001-1V2a1 1 0 00-1-1H9a1 1 0 00-1 1v6a1 1 0 001 1h2v2H5a1 1 0 00-1 1v3H2a1 1 0 00-1 1v6a1 1 0 001 1h6a1 1 0 001-1v-6a1 1 0 00-1-1H6v-2h12v2h-2a1 1 0 00-1 1v6a1 1 0 001 1h6a1 1 0 001-1v-6a1 1 0 00-1-1zM7 17v4H3v-4zm3-10V3h4v4zm11 14h-4v-4h4z"/></svg>

<svg xmlns="http://www.w3.org/2000/svg" data-name="Layer 1" viewBox="0 0 24 24"><path d="M22,15H20V12a1,1,0,0,0-1-1H13V9h2a1,1,0,0,0,1-1V2a1,1,0,0,0-1-1H9A1,1,0,0,0,8,2V8A1,1,0,0,0,9,9h2v2H5a1,1,0,0,0-1,1v3H2a1,1,0,0,0-1,1v6a1,1,0,0,0,1,1H8a1,1,0,0,0,1-1V16a1,1,0,0,0-1-1H6V13H18v2H16a1,1,0,0,0-1,1v6a1,1,0,0,0,1,1h6a1,1,0,0,0,1-1V16A1,1,0,0,0,22,15ZM7,17v4H3V17ZM10,7V3h4V7ZM21,21H17V17h4Z"/></svg>
